static/img/kroki/fb5e065e9ac62410c14b75cd61d45861.svg

<?xml version="1.0" encoding="us-ascii" standalone="no"?><svg xmlns="http://www.w3.org/2000/svg" xmlns:xlink="http://www.w3.org/1999/xlink" contentStyleType="text/css" height="352px" preserveAspectRatio="none" style="width:1269px;height:352px;" version="1.1" viewBox="0 0 1269 352" width="1269px" zoomAndPan="magnify"><defs/><g><!--class azure_compute_disk_encryption_set--><g id="elem_azure_compute_disk_encryption_set"><rect codeLine="23" fill="#3D176E" height="39.7891" id="azure_compute_disk_encryption_set" rx="2.5" ry="2.5" style="stroke:#000D19;stroke-width:0.5;" width="344" x="7" y="206.58"/><ellipse cx="22" cy="226.4745" fill="#ADD1B2" rx="11" ry="11" style="stroke:#181818;stroke-width:1.0;"/><path d="M24.9688,232.1152 Q24.3906,232.412 23.75,232.5527 Q23.1094,232.7089 22.4063,232.7089 Q19.9063,232.7089 18.5781,231.0683 Q17.2656,229.412 17.2656,226.287 Q17.2656,223.162 18.5781,221.5058 Q19.9063,219.8495 22.4063,219.8495 Q23.1094,219.8495 23.75,220.0058 Q24.4063,220.162 24.9688,220.4589 L24.9688,223.1777 Q24.3438,222.5995 23.75,222.3339 Q23.1563,222.0527 22.5313,222.0527 Q21.1875,222.0527 20.5,223.1308 Q19.8125,224.1933 19.8125,226.287 Q19.8125,228.3808 20.5,229.4589 Q21.1875,230.5214 22.5313,230.5214 Q23.1563,230.5214 23.75,230.2558 Q24.3438,229.9745 24.9688,229.3964 L24.9688,232.1152 Z " fill="#000000"/><text fill="#D9B8FF" font-family="Helvetica" font-size="17" lengthAdjust="spacing" textLength="302" x="41" y="232.3598">azure_compute_disk_encryption_set</text></g><!--class azure_compute_virtual_machine_scale_set--><g id="elem_azure_compute_virtual_machine_scale_set"><rect codeLine="26" fill="#3D176E" height="39.7891" id="azure_compute_virtual_machine_scale_set" rx="2.5" ry="2.5" style="stroke:#000D19;stroke-width:0.5;" width="399" x="560.5" y="306.37"/><ellipse cx="575.5" cy="326.2645" fill="#ADD1B2" rx="11" ry="11" style="stroke:#181818;stroke-width:1.0;"/><path d="M578.4688,331.9052 Q577.8906,332.202 577.25,332.3427 Q576.6094,332.4989 575.9063,332.4989 Q573.4063,332.4989 572.0781,330.8583 Q570.7656,329.202 570.7656,326.077 Q570.7656,322.952 572.0781,321.2958 Q573.4063,319.6395 575.9063,319.6395 Q576.6094,319.6395 577.25,319.7958 Q577.9063,319.952 578.4688,320.2489 L578.4688,322.9677 Q577.8438,322.3895 577.25,322.1239 Q576.6563,321.8427 576.0313,321.8427 Q574.6875,321.8427 574,322.9208 Q573.3125,323.9833 573.3125,326.077 Q573.3125,328.1708 574,329.2489 Q574.6875,330.3114 576.0313,330.3114 Q576.6563,330.3114 577.25,330.0458 Q577.8438,329.7645 578.4688,329.1864 L578.4688,331.9052 Z " fill="#000000"/><text fill="#D9B8FF" font-family="Helvetica" font-size="17" lengthAdjust="spacing" textLength="357" x="594.5" y="332.1498">azure_compute_virtual_machine_scale_set</text></g><!--class azure_container_service_fleet--><g id="elem_azure_container_service_fleet"><rect codeLine="29" fill="#3D176E" height="39.7891" id="azure_container_service_fleet" rx="2.5" ry="2.5" style="stroke:#000D19;stroke-width:0.5;" width="290" x="233" y="7"/><ellipse cx="248" cy="26.8945" fill="#ADD1B2" rx="11" ry="11" style="stroke:#181818;stroke-width:1.0;"/><path d="M250.9688,32.5352 Q250.3906,32.832 249.75,32.9727 Q249.1094,33.1289 248.4063,33.1289 Q245.9063,33.1289 244.5781,31.4883 Q243.2656,29.832 243.2656,26.707 Q243.2656,23.582 244.5781,21.9258 Q245.9063,20.2695 248.4063,20.2695 Q249.1094,20.2695 249.75,20.4258 Q250.4063,20.582 250.9688,20.8789 L250.9688,23.5977 Q250.3438,23.0195 249.75,22.7539 Q249.1563,22.4727 248.5313,22.4727 Q247.1875,22.4727 246.5,23.5508 Q245.8125,24.6133 245.8125,26.707 Q245.8125,28.8008 246.5,29.8789 Q247.1875,30.9414 248.5313,30.9414 Q249.1563,30.9414 249.75,30.6758 Q250.3438,30.3945 250.9688,29.8164 L250.9688,32.5352 Z " fill="#000000"/><text fill="#D9B8FF" font-family="Helvetica" font-size="17" lengthAdjust="spacing" textLength="248" x="267" y="32.7798">azure_container_service_fleet</text></g><!--class azure_container_service_managed_cluster--><g id="elem_azure_container_service_managed_cluster"><rect codeLine="32" fill="#3D176E" height="39.7891" id="azure_container_service_managed_cluster" rx="2.5" ry="2.5" style="stroke:#000D19;stroke-width:0.5;" width="395" x="352.5" y="106.79"/><ellipse cx="367.5" cy="126.6845" fill="#ADD1B2" rx="11" ry="11" style="stroke:#181818;stroke-width:1.0;"/><path d="M370.4688,132.3252 Q369.8906,132.622 369.25,132.7627 Q368.6094,132.9189 367.9063,132.9189 Q365.4063,132.9189 364.0781,131.2783 Q362.7656,129.622 362.7656,126.497 Q362.7656,123.372 364.0781,121.7158 Q365.4063,120.0595 367.9063,120.0595 Q368.6094,120.0595 369.25,120.2158 Q369.9063,120.372 370.4688,120.6689 L370.4688,123.3877 Q369.8438,122.8095 369.25,122.5439 Q368.6563,122.2627 368.0313,122.2627 Q366.6875,122.2627 366,123.3408 Q365.3125,124.4033 365.3125,126.497 Q365.3125,128.5908 366,129.6689 Q366.6875,130.7314 368.0313,130.7314 Q368.6563,130.7314 369.25,130.4658 Q369.8438,130.1845 370.4688,129.6064 L370.4688,132.3252 Z " fill="#000000"/><text fill="#D9B8FF" font-family="Helvetica" font-size="17" lengthAdjust="spacing" textLength="353" x="386.5" y="132.5698">azure_container_service_managed_cluster</text></g><!--class azure_container_service_managed_cluster_snapshot--><g id="elem_azure_container_service_managed_cluster_snapshot"><rect codeLine="35" fill="#3D176E" height="39.7891" id="azure_container_service_managed_cluster_snapshot" rx="2.5" ry="2.5" style="stroke:#000D19;stroke-width:0.5;" width="479" x="457.5" y="206.58"/><ellipse cx="472.5" cy="226.4745" fill="#ADD1B2" rx="11" ry="11" style="stroke:#181818;stroke-width:1.0;"/><path d="M475.4688,232.1152 Q474.8906,232.412 474.25,232.5527 Q473.6094,232.7089 472.9063,232.7089 Q470.4063,232.7089 469.0781,231.0683 Q467.7656,229.412 467.7656,226.287 Q467.7656,223.162 469.0781,221.5058 Q470.4063,219.8495 472.9063,219.8495 Q473.6094,219.8495 474.25,220.0058 Q474.9063,220.162 475.4688,220.4589 L475.4688,223.1777 Q474.8438,222.5995 474.25,222.3339 Q473.6563,222.0527 473.0313,222.0527 Q471.6875,222.0527 471,223.1308 Q470.3125,224.1933 470.3125,226.287 Q470.3125,228.3808 471,229.4589 Q471.6875,230.5214 473.0313,230.5214 Q473.6563,230.5214 474.25,230.2558 Q474.8438,229.9745 475.4688,229.3964 L475.4688,232.1152 Z " fill="#000000"/><text fill="#D9B8FF" font-family="Helvetica" font-size="17" lengthAdjust="spacing" textLength="437" x="491.5" y="232.3598">azure_container_service_managed_cluster_snapshot</text></g><!--class azure_machine_learning_compute--><g id="elem_azure_machine_learning_compute"><rect codeLine="38" fill="#3D176E" height="39.7891" id="azure_machine_learning_compute" rx="2.5" ry="2.5" style="stroke:#000D19;stroke-width:0.5;" width="329" x="557.5" y="7"/><ellipse cx="572.5" cy="26.8945" fill="#ADD1B2" rx="11" ry="11" style="stroke:#181818;stroke-width:1.0;"/><path d="M575.4688,32.5352 Q574.8906,32.832 574.25,32.9727 Q573.6094,33.1289 572.9063,33.1289 Q570.4063,33.1289 569.0781,31.4883 Q567.7656,29.832 567.7656,26.707 Q567.7656,23.582 569.0781,21.9258 Q570.4063,20.2695 572.9063,20.2695 Q573.6094,20.2695 574.25,20.4258 Q574.9063,20.582 575.4688,20.8789 L575.4688,23.5977 Q574.8438,23.0195 574.25,22.7539 Q573.6563,22.4727 573.0313,22.4727 Q571.6875,22.4727 571,23.5508 Q570.3125,24.6133 570.3125,26.707 Q570.3125,28.8008 571,29.8789 Q571.6875,30.9414 573.0313,30.9414 Q573.6563,30.9414 574.25,30.6758 Q574.8438,30.3945 575.4688,29.8164 L575.4688,32.5352 Z " fill="#000000"/><text fill="#D9B8FF" font-family="Helvetica" font-size="17" lengthAdjust="spacing" textLength="287" x="591.5" y="32.7798">azure_machine_learning_compute</text></g><!--class azure_network_load_balancer--><g id="elem_azure_network_load_balancer"><rect codeLine="41" fill="#3D176E" height="39.7891" id="azure_network_load_balancer" rx="2.5" ry="2.5" style="stroke:#000D19;stroke-width:0.5;" width="291" x="971.5" y="206.58"/><ellipse cx="986.5" cy="226.4745" fill="#ADD1B2" rx="11" ry="11" style="stroke:#181818;stroke-width:1.0;"/><path d="M989.4688,232.1152 Q988.8906,232.412 988.25,232.5527 Q987.6094,232.7089 986.9063,232.7089 Q984.4063,232.7089 983.0781,231.0683 Q981.7656,229.412 981.7656,226.287 Q981.7656,223.162 983.0781,221.5058 Q984.4063,219.8495 986.9063,219.8495 Q987.6094,219.8495 988.25,220.0058 Q988.9063,220.162 989.4688,220.4589 L989.4688,223.1777 Q988.8438,222.5995 988.25,222.3339 Q987.6563,222.0527 987.0313,222.0527 Q985.6875,222.0527 985,223.1308 Q984.3125,224.1933 984.3125,226.287 Q984.3125,228.3808 985,229.4589 Q985.6875,230.5214 987.0313,230.5214 Q987.6563,230.5214 988.25,230.2558 Q988.8438,229.9745 989.4688,229.3964 L989.4688,232.1152 Z " fill="#000000"/><text fill="#D9B8FF" font-family="Helvetica" font-size="17" lengthAdjust="spacing" textLength="249" x="1005.5" y="232.3598">azure_network_load_balancer</text></g><!--link azure_container_service_fleet to azure_container_service_managed_cluster--><g id="link_azure_container_service_fleet_azure_container_service_managed_cluster"><path codeLine="44" d="M411.98,47.22 C442.14,64.36 480.7441,86.3145 510.8741,103.4445 " fill="none" id="azure_container_service_fleet-to-azure_container_service_managed_cluster" style="stroke:#1A83AF;stroke-width:2.0;"/><polygon fill="#1A83AF" points="516.09,106.41,510.2431,98.4845,511.7434,103.9388,506.2891,105.4391,516.09,106.41" style="stroke:#1A83AF;stroke-width:2.0;"/></g><!--link azure_container_service_managed_cluster to azure_compute_disk_encryption_set--><g id="link_azure_container_service_managed_cluster_azure_compute_disk_encryption_set"><path codeLine="45" d="M476.7,147.01 C411.77,164.12 323.2518,187.4508 258.2618,204.5808 " fill="none" id="azure_container_service_managed_cluster-to-azure_compute_disk_encryption_set" style="stroke:#1A83AF;stroke-width:2.0;"/><polygon fill="#1A83AF" points="252.46,206.11,262.1823,207.684,257.2949,204.8356,260.1433,199.9482,252.46,206.11" style="stroke:#1A83AF;stroke-width:2.0;"/></g><!--link azure_container_service_managed_cluster to azure_compute_virtual_machine_scale_set--><g id="link_azure_container_service_managed_cluster_azure_compute_virtual_machine_scale_set"><path codeLine="46" d="M509.62,146.95 C467.36,169.71 410.89,209.22 440,246.37 C461.7,274.07 530.5099,292.335 602.2899,304.905 " fill="none" id="azure_container_service_managed_cluster-to-azure_compute_virtual_machine_scale_set" style="stroke:#1A83AF;stroke-width:2.0;"/><polygon fill="#1A83AF" points="608.2,305.94,600.0249,300.4475,603.2749,305.0775,598.6449,308.3276,608.2,305.94" style="stroke:#1A83AF;stroke-width:2.0;"/></g><!--link azure_container_service_managed_cluster to azure_container_service_managed_cluster_snapshot--><g id="link_azure_container_service_managed_cluster_azure_container_service_managed_cluster_snapshot"><path codeLine="47" d="M579.04,147.01 C604.81,164.15 637.2753,185.7354 663.0253,202.8754 " fill="none" id="azure_container_service_managed_cluster-to-azure_container_service_managed_cluster_snapshot" style="stroke:#1A83AF;stroke-width:2.0;"/><polygon fill="#1A83AF" points="668.02,206.2,662.7444,197.8833,663.8578,203.4295,658.3116,204.5429,668.02,206.2" style="stroke:#1A83AF;stroke-width:2.0;"/></g><!--link azure_container_service_managed_cluster to azure_network_load_balancer--><g id="link_azure_container_service_managed_cluster_azure_network_load_balancer"><path codeLine="48" d="M662.36,147.07 C761.64,164.19 899.7373,188.0103 998.9473,205.1203 " fill="none" id="azure_container_service_managed_cluster-to-azure_network_load_balancer" style="stroke:#1A83AF;stroke-width:2.0;"/><polygon fill="#1A83AF" points="1004.86,206.14,996.6707,200.6686,999.9327,205.2902,995.3111,208.5522,1004.86,206.14" style="stroke:#1A83AF;stroke-width:2.0;"/></g><!--link azure_machine_learning_compute to azure_container_service_managed_cluster--><g id="link_azure_machine_learning_compute_azure_container_service_managed_cluster"><path codeLine="49" d="M688.02,47.22 C657.86,64.36 619.2559,86.3145 589.1259,103.4445 " fill="none" id="azure_machine_learning_compute-to-azure_container_service_managed_cluster" style="stroke:#1A83AF;stroke-width:2.0;"/><polygon fill="#1A83AF" points="583.91,106.41,593.7109,105.4391,588.2566,103.9388,589.7569,98.4845,583.91,106.41" style="stroke:#1A83AF;stroke-width:2.0;"/></g><!--link azure_network_load_balancer to azure_compute_virtual_machine_scale_set--><g id="link_azure_network_load_balancer_azure_compute_virtual_machine_scale_set"><path codeLine="50" d="M1046.47,246.8 C983.98,263.91 899.0068,287.1847 836.4768,304.3147 " fill="none" id="azure_network_load_balancer-to-azure_compute_virtual_machine_scale_set" style="stroke:#1A83AF;stroke-width:2.0;"/><polygon fill="#1A83AF" points="830.69,305.9,840.427,307.3799,835.5123,304.5789,838.3133,299.6642,830.69,305.9" style="stroke:#1A83AF;stroke-width:2.0;"/></g><!--SRC=[hP9FImCn4CNl-oa2FGkjHTjUX5eGlOYeDv4mJMQxOREJPP9jgU9tTwjMrltJbjPhvZSpxyrBOZGApFAm5XbcSsGV-THG3WoPc3AxrSnPnw8Nnn0FH_NYZQEm5xY73CKjsYK6ew1EF2T6fOJUY_DAwHfKkc1NaFuU7nZ8boMaKA5c5hoVXi1cNWIiYD6J-JYEwsHzQ6-e1wDBR62EDV8Fqk_tzM1IH_QkskdxbtWoRoW6rQFTku0DcOqLNzHEbHkY8h9XT5llrFW0MXjQY8lAs-Et9YRaF-zF2MYtsj0nM5zTumCokh3ESTPmXPEnZaUjy5qN7AdDwGIy5OnIkImlOvVQ-5GYALxdmJYI7eDuZwAFLdXfE1HWPGOgCOJIAx3OrK81IeRBCY-DGXbRF0pCW621MYfRR5mTqI8zGUuJrx9kAzqYC9LNttfhaeHXvJYLre6MSx10QYjcjyMpbzvWEXvERrxFhWvL71rwZDRXdL7-nzZEq4yRVcY4fsnfZJ3Qyn5EYA_zonnrsqy0]--></g></svg>

<svg xmlns="http://www.w3.org/2000/svg" width="1269" height="352" viewBox="0 0 1269 352"><rect width="344" height="39.789" x="7" y="206.58" fill="#3D176E" rx="2.5" ry="2.5" style="stroke:#000d19;stroke-width:.5"/><circle cx="22" cy="226.475" r="11" fill="#ADD1B2" style="stroke:#181818;stroke-width:1"/><path d="M24.969 232.115q-.578.297-1.219.438-.64.156-1.344.156-2.5 0-3.828-1.64-1.312-1.657-1.312-4.782t1.312-4.781q1.328-1.656 3.828-1.656.703 0 1.344.156.656.156 1.219.453v2.719q-.625-.578-1.219-.844-.594-.281-1.219-.281-1.343 0-2.031 1.078-.687 1.062-.687 3.156t.687 3.172q.688 1.062 2.031 1.062.625 0 1.219-.265.594-.281 1.219-.86z"/><text x="41" y="232.36" fill="#D9B8FF" font-family="Helvetica" font-size="17" textLength="302">azure_compute_disk_encryption_set</text><rect width="399" height="39.789" x="560.5" y="306.37" fill="#3D176E" rx="2.5" ry="2.5" style="stroke:#000d19;stroke-width:.5"/><circle cx="575.5" cy="326.264" r="11" fill="#ADD1B2" style="stroke:#181818;stroke-width:1"/><path d="M578.469 331.905q-.578.297-1.219.438-.64.156-1.344.156-2.5 0-3.828-1.64-1.312-1.657-1.312-4.782t1.312-4.781q1.328-1.656 3.828-1.656.703 0 1.344.156.656.156 1.219.453v2.719q-.625-.579-1.219-.844-.594-.281-1.219-.281-1.343 0-2.031 1.078-.687 1.062-.687 3.156t.687 3.172q.688 1.062 2.031 1.062.625 0 1.219-.265.594-.281 1.219-.86z"/><text x="594.5" y="332.15" fill="#D9B8FF" font-family="Helvetica" font-size="17" textLength="357">azure_compute_virtual_machine_scale_set</text><rect width="290" height="39.789" x="233" y="7" fill="#3D176E" rx="2.5" ry="2.5" style="stroke:#000d19;stroke-width:.5"/><circle cx="248" cy="26.895" r="11" fill="#ADD1B2" style="stroke:#181818;stroke-width:1"/><path d="M250.969 32.535q-.578.297-1.219.438-.64.156-1.344.156-2.5 0-3.828-1.64-1.312-1.657-1.312-4.782t1.312-4.781q1.328-1.656 3.828-1.656.703 0 1.344.156.656.156 1.219.453v2.719q-.625-.578-1.219-.844-.594-.281-1.219-.281-1.344 0-2.031 1.078-.687 1.062-.687 3.156t.687 3.172q.688 1.062 2.031 1.062.625 0 1.219-.265.594-.281 1.219-.86z"/><text x="267" y="32.78" fill="#D9B8FF" font-family="Helvetica" font-size="17" textLength="248">azure_container_service_fleet</text><rect width="395" height="39.789" x="352.5" y="106.79" fill="#3D176E" rx="2.5" ry="2.5" style="stroke:#000d19;stroke-width:.5"/><circle cx="367.5" cy="126.684" r="11" fill="#ADD1B2" style="stroke:#181818;stroke-width:1"/><path d="M370.469 132.325q-.578.297-1.219.438-.64.156-1.344.156-2.5 0-3.828-1.64-1.312-1.657-1.312-4.782t1.312-4.781q1.328-1.656 3.828-1.656.703 0 1.344.156.656.156 1.219.453v2.719q-.625-.579-1.219-.844-.594-.281-1.219-.281-1.344 0-2.031 1.078-.687 1.062-.687 3.156t.687 3.172q.688 1.062 2.031 1.062.625 0 1.219-.265.594-.281 1.219-.86z"/><text x="386.5" y="132.57" fill="#D9B8FF" font-family="Helvetica" font-size="17" textLength="353">azure_container_service_managed_cluster</text><rect width="479" height="39.789" x="457.5" y="206.58" fill="#3D176E" rx="2.5" ry="2.5" style="stroke:#000d19;stroke-width:.5"/><circle cx="472.5" cy="226.475" r="11" fill="#ADD1B2" style="stroke:#181818;stroke-width:1"/><path d="M475.469 232.115q-.578.297-1.219.438-.64.156-1.344.156-2.5 0-3.828-1.64-1.312-1.657-1.312-4.782t1.312-4.781q1.328-1.656 3.828-1.656.703 0 1.344.156.656.156 1.219.453v2.719q-.625-.578-1.219-.844-.594-.281-1.219-.281-1.344 0-2.031 1.078-.687 1.062-.687 3.156t.687 3.172q.688 1.062 2.031 1.062.625 0 1.219-.265.594-.281 1.219-.86z"/><text x="491.5" y="232.36" fill="#D9B8FF" font-family="Helvetica" font-size="17" textLength="437">azure_container_service_managed_cluster_snapshot</text><rect width="329" height="39.789" x="557.5" y="7" fill="#3D176E" rx="2.5" ry="2.5" style="stroke:#000d19;stroke-width:.5"/><circle cx="572.5" cy="26.895" r="11" fill="#ADD1B2" style="stroke:#181818;stroke-width:1"/><path d="M575.469 32.535q-.578.297-1.219.438-.64.156-1.344.156-2.5 0-3.828-1.64-1.312-1.657-1.312-4.782t1.312-4.781q1.328-1.656 3.828-1.656.703 0 1.344.156.656.156 1.219.453v2.719q-.625-.578-1.219-.844-.594-.281-1.219-.281-1.343 0-2.031 1.078-.687 1.062-.687 3.156t.687 3.172q.688 1.062 2.031 1.062.625 0 1.219-.265.594-.281 1.219-.86z"/><text x="591.5" y="32.78" fill="#D9B8FF" font-family="Helvetica" font-size="17" textLength="287">azure_machine_learning_compute</text><rect width="291" height="39.789" x="971.5" y="206.58" fill="#3D176E" rx="2.5" ry="2.5" style="stroke:#000d19;stroke-width:.5"/><circle cx="986.5" cy="226.475" r="11" fill="#ADD1B2" style="stroke:#181818;stroke-width:1"/><path d="M989.469 232.115q-.578.297-1.219.438-.64.156-1.344.156-2.5 0-3.828-1.64-1.312-1.657-1.312-4.782t1.312-4.781q1.328-1.656 3.828-1.656.703 0 1.344.156.656.156 1.219.453v2.719q-.625-.578-1.219-.844-.594-.281-1.219-.281-1.343 0-2.031 1.078-.687 1.062-.687 3.156t.687 3.172q.688 1.062 2.031 1.062.625 0 1.219-.265.594-.281 1.219-.86z"/><text x="1005.5" y="232.36" fill="#D9B8FF" font-family="Helvetica" font-size="17" textLength="249">azure_network_load_balancer</text><path fill="none" d="M411.98 47.22c30.16 17.14 68.764 39.095 98.894 56.225" style="stroke:#1a83af;stroke-width:2"/><path fill="#1A83AF" d="m516.09 106.41-5.847-7.925 1.5 5.454-5.454 1.5z" style="stroke:#1a83af;stroke-width:2"/><path fill="none" d="M476.7 147.01c-64.93 17.11-153.448 40.44-218.438 57.57" style="stroke:#1a83af;stroke-width:2"/><path fill="#1A83AF" d="m252.46 206.11 9.722 1.574-4.887-2.848 2.848-4.888z" style="stroke:#1a83af;stroke-width:2"/><path fill="none" d="M509.62 146.95c-42.26 22.76-98.73 62.27-69.62 99.42 21.7 27.7 90.51 45.965 162.29 58.535" style="stroke:#1a83af;stroke-width:2"/><path fill="#1A83AF" d="m608.2 305.94-8.175-5.493 3.25 4.63-4.63 3.25z" style="stroke:#1a83af;stroke-width:2"/><path fill="none" d="M579.04 147.01c25.77 17.14 58.235 38.725 83.985 55.865" style="stroke:#1a83af;stroke-width:2"/><path fill="#1A83AF" d="m668.02 206.2-5.276-8.317 1.114 5.546-5.546 1.114z" style="stroke:#1a83af;stroke-width:2"/><path fill="none" d="M662.36 147.07c99.28 17.12 237.377 40.94 336.587 58.05" style="stroke:#1a83af;stroke-width:2"/><path fill="#1A83AF" d="m1004.86 206.14-8.19-5.471 3.263 4.621-4.622 3.262z" style="stroke:#1a83af;stroke-width:2"/><path fill="none" d="M688.02 47.22c-30.16 17.14-68.764 39.095-98.894 56.225" style="stroke:#1a83af;stroke-width:2"/><path fill="#1A83AF" d="m583.91 106.41 9.8-.97-5.453-1.501 1.5-5.454z" style="stroke:#1a83af;stroke-width:2"/><path fill="none" d="M1046.47 246.8c-62.49 17.11-147.463 40.385-209.993 57.515" style="stroke:#1a83af;stroke-width:2"/><path fill="#1A83AF" d="m830.69 305.9 9.737 1.48-4.915-2.801 2.801-4.915z" style="stroke:#1a83af;stroke-width:2"/></svg>
